!!!OTL: No_22_Origin_of_the_Bi'jîkiwûck'.krn
!!!REG: Great_Lakes
!!!LANG: Non-Tone
!!!LING_GROUP: Algonquin
!!!SOCIAL_FUNCTION: songs of war
**kern	**kern
*staff2	*staff1
*clefF4	*clefF4
*k[b-e-a-d-g-c-]	*k[b-e-a-d-g-c-]
*M3/4	*M3/4
4r	8d-\L
.	8d-\J
=1	=1
8GG-/L	4e-\
8GG-/J	.
8GG-/L	8e-\L
8GG-/J	8d-\J
8GG-/L	8d-\L
8GG-/J	8d-\J
=2	=2
2.r	4d-\
.	4A-\
.	8d-\L
.	8d-\J
=3	=3
2.r	4d-\
.	8d-\L
.	8c-\J
.	8A-\L
.	8A-\J
=4	=4
2.r	4A-\
.	4G-\
.	8G-\L
.	8G-\J
=5	=5
2.r	4G-\
.	4D-\
.	8c-\L
.	8c-\J
=6	=6
2.r	4c-\
.	8c-\L
.	8A--\J
.	8G-\L
.	8G-\J
=7	=7
2.r	4G-\
.	4D-\
.	8G-\L
.	8G-\J
=8	=8
2.r	4G-\
.	8G-\L
.	8F-\J
.	8D-\L
.	8D-\J
=9	=9
*M2/4	*M2/4
2r	4D-\
.	4BB-/
==	==
*-	*-
